X: 41287
T: Tumble The Tinker
R: jig
M: 6/8
K: Gmajor
|:dc|BAG GDG|GBd gdc|BAG GDG|A2 G Adc|
BAG GDG|GBd gdB|cec BdB|A2 G A:|
|:Bc|ded BGB|def gdB|ded BGB|A2 G ABc|
[1 ded BGB|def gdB|cec BdB|A2 G A:|
[2 ded def|gba gdB|cec BdB|A2 G A||

